X: 35688
T: Saint Anne's
R: reel
M: 4/4
K: Dmajor
|:Ad|f2fg fedB|A2FA DAFA|B2GB EBGB|AGFE DFAd|
f2fg fedB|A2FA DAFA|BGBd cAce|fddc d2:|
|:Ad|f2fg fedf|aggf g2gf|edcB Acea|baab a2Ad|
f2fg fedf|aggf g2gf|edcB Aceg|fdec d2:|

